!!!COM: John Williams
!!!OTL: Emperor's Theme Basic
!!!GAW: Star Wars: Episode VI: Return of the Jedi
!!!ODT: 1983
!!!OCL: Frank Lehman
!!!ENC: Claire Arthur
!!!ENC2: John McNamara
**kern	**harte	**harm	**altharm	**cadence
*clefF4	*	*	*	*
*k[b-e-]	*k[b-e-]	*k[b-e-]	*	*
*g:	*g:	*g:	*	*
*M4/4	*M4/4	*M4/4	*	*
*MM60	*MM60	*MM60	*	*
=1-	=1-	=1-	=1-	=1-
4GG	G:min	i	None	.
4BB-	.	.	.	.
2GG	.	.	.	.
=2	=2	=2	=2	=2
4BB-	G:min	.	.	.
4GG	.	.	.	.
2FF	B-:min/5	iiic	.	.
=3	=3	=3	=3	=3
4GG	G:min	i	.	.
4BB-	.	.	.	.
4GG	.	.	.	.
4D	.	.	.	.
=4	=4	=4	=4	=4
2C#	C#:min	#iv	-v	.
2Cn	.	.	.	//
=5	=5	=5	=5	=5
4GG	G:min	i	None	.
4BB-	.	.	.	.
2GG	.	.	.	.
=6	=6	=6	=6	=6
4BB-	G:min	i	.	.
4GG	.	.	.	.
2FF	B-:min/5	iiic	ivc/-vii	.
=7	=7	=7	=7	=7
4FF	F:min	-vii	None	.
4C	.	.	.	.
4BBn	.	.	.	.
4FF	.	.	.	.
=8	=8	=8	=8	=8
2AA-	D-:min/5	#ivc	-vic/-vii	CHC
2GG	D-:dim/5	.	.	//
=9	=9	=9	=9	=9
4GG	G:min	i	.	.
4BB-	.	.	.	.
2GG	.	.	.	.
=10	=10	=10	=10	=10
4BB-	G:min	i	None	.
4GG	.	.	.	.
2FF	B-:min/5	iiic	.	.
=11	=11	=11	=11	=11
4GG	G:min	i	.	.
4BB-	.	.	.	.
4GG	.	.	.	.
4D	.	.	.	.
=12	=12	=12	=12	=12
2C#	C#:min	#iv	-v	//
2r	.	.	.	.
=	=	=	=	=
*-	*-	*-	*-	*-
